hosted/assets/icon/widgets/dark-mode/text-input.svg

<svg width="50" height="50" viewBox="0 0 50 50" fill="none" xmlns="http://www.w3.org/2000/svg">
<path d="M2 14C0.906937 14 0 14.9069 0 16V34C0 35.0931 0.906937 36 2 36H48C49.0931 36 50 35.0931 50 34V16C50 14.9069 49.0931 14 48 14H2ZM2 16H48V34H2V16Z" fill="white"/>
<path d="M13.6191 29H11.7324L10.9824 27.0488H7.54883L6.83984 29H5L8.3457 20.4102H10.1797L13.6191 29ZM10.4258 25.6016L9.24219 22.4141L8.08203 25.6016H10.4258Z" fill="white"/>
<path d="M16 19H17V31H16V19Z" fill="white"/>
<path d="M46.653 37.1901L33.3332 25.2975C33.2043 25.1824 33 25.2739 33 25.4467V43.0592C33 43.2311 33.2024 43.3229 33.3317 43.2097L36.8339 40.1453C36.9228 40.0675 37.0596 40.0834 37.1283 40.1796L39.3949 43.3529C39.4546 43.4364 39.5678 43.4612 39.6569 43.4103L42.8264 41.5992C42.9223 41.5444 42.9556 41.4222 42.9008 41.3263L41.1557 38.2725C41.0831 38.1455 41.167 37.9861 41.3127 37.9739L46.5364 37.5386C46.7114 37.524 46.784 37.3071 46.653 37.1901Z" fill="#E75F63"/>
<path fill-rule="evenodd" clip-rule="evenodd" d="M32.1499 25.4467C32.1499 24.5396 33.2226 24.0593 33.8992 24.6635L47.219 36.5561C47.9068 37.1702 47.5257 38.3091 46.6069 38.3857L42.3996 38.7363L43.6387 40.9047C43.9264 41.4081 43.7515 42.0495 43.248 42.3373L40.0785 44.1484C39.6107 44.4157 39.0164 44.2855 38.7032 43.847L36.8536 41.2575L33.8913 43.8495C33.2124 44.4435 32.1499 43.9614 32.1499 43.0593V25.4467ZM33.8499 26.8985V41.6268L36.274 39.5057C36.7412 39.0969 37.4591 39.1805 37.8199 39.6856L39.7451 42.3809L41.8402 41.1837L40.4176 38.6942L41.1556 38.2725L40.4176 38.6942C40.0366 38.0275 40.4768 37.1907 41.242 37.1269L41.3126 37.974L41.2421 37.1269L44.9589 36.8172L33.8499 26.8985ZM39.2351 42.6723C39.2354 42.6722 39.2358 42.672 39.2361 42.6718L39.2351 42.6723Z" fill="white"/>
</svg>

<svg width="50" height="50" fill="none" xmlns="http://www.w3.org/2000/svg"><path d="M2 14c-1.093 0-2 .907-2 2v18c0 1.093.907 2 2 2h46c1.093 0 2-.907 2-2V16c0-1.093-.907-2-2-2H2zm0 2h46v18H2V16z" fill="#fff"/><path d="M13.62 29h-1.888l-.75-1.951H7.55L6.839 29H5l3.346-8.59h1.834L13.62 29zm-3.194-3.398l-1.184-3.188-1.16 3.188h2.344zM16 19h1v12h-1V19z" fill="#fff"/><path d="M46.653 37.19l-13.32-11.892a.2.2 0 00-.333.149v17.612a.2.2 0 00.332.15l3.502-3.064a.2.2 0 01.294.035l2.267 3.173a.2.2 0 00.262.057l3.17-1.81a.2.2 0 00.074-.274l-1.745-3.053a.2.2 0 01.157-.3l5.223-.434a.2.2 0 00.117-.349z" fill="#E75F63"/><path fill-rule="evenodd" clip-rule="evenodd" d="M32.15 25.447c0-.907 1.073-1.388 1.75-.784l13.319 11.893c.688.614.307 1.753-.612 1.83l-4.207.35 1.239 2.169a1.05 1.05 0 01-.391 1.432l-3.17 1.811a1.05 1.05 0 01-1.375-.301l-1.85-2.59-2.962 2.593c-.679.593-1.741.111-1.741-.79V25.446zm1.7 1.451v14.729l2.424-2.121a1.05 1.05 0 011.546.18l1.925 2.695 2.095-1.197-1.422-2.49.738-.422-.738.422a1.05 1.05 0 01.824-1.567l.07.847-.07-.847 3.717-.31-11.11-9.919zm5.385 15.774h.001z" fill="#fff"/></svg>
